X: 419
T: Highlander's Return/Lord Lovat's Lament
R: Air, March
M:4/4
L:1/8
K:G
GA|:"G"B2 Bd "Am"cB AG |"G"Bd d>e "Bm"d2 ef|"C"g2g>e "G"ed "Em"BG|"Am"BA A>B "D"A2 GA|
"G"B2 Bd "Am"cB AG|"G"Bd d>e "Bm"d2 BG|"C"c2 ec "G"Bd BG|"D"AG G>A "G"G2|
ef|:"G"g2 eg "C"ed "G"BG |Bd d>e "Bm"d2 ef|"C"g2 eg "G"ed "Em"BG|"Am"BA A>B "D7"A2 GA|
"G"B2 Bd "Am"cB AG|"G"Bd d>e "Bm"d2 BG|"C"c2 ec "G"Bd BG|[1 "D"AG G>A "G"G2:|[2"D"AG G>A "G"G4||

